X: 1
T: Auld Lang Syne
C:
R: march
Z: 2014 John Chambers <jc:trillian.mit.edu>
S: Page from Concord Slow Scottish Session collection
M: C
L: 1/8
K: F
C2 |\
"F"F3F F2A2 | "Gm"G3F "C"G2AG | "F"F3F "Dm"A2"C"c2 | "Bb"d6 d2 |\
"F"c3A A2F2 | "Gm"G3F "C"G2"A7"AG | "Dm"F3D "C7"D2C2 | "F"F6 |]
"Bb"d2 |\
"F"c3A "Dm"A2F2 | "Gm"G3F "C"G2"Bb"d2 | "F"c3A A2c2 | "Bb"d6 "Gm"d2 |\
"F"c3A "Dm"A2F2 | "Gm"G3F "C"G2"A7"AG | "Dm"F3D "C7"D2C2 | "F"F6 |]
